X:1
T:70 Millionen, ein Schlag!
T:70 Millionen, ein Schlag!
%%score { ( 1 3 ) | 2 }
L:1/8
Q:1/4=116
M:4/4
K:Gb
V:1 treble nm="Piano" snm="Pno."
V:3 treble 
V:2 bass 
V:1
 (3E[E=G][EGB] [EGBe]4 [FB=df]2 | [=GBe=g][EGBe]/[EGBe]/ [EGBe]6 | %2
 (3[EB][EG][EB] [EGBe]4 [F=A=cf]2 | [B,B]2 (3[B,B][B,B][B,B] [B,B]2 [B,B]2 | %4
 (3[Ee][Ee][Ee] [Ee]4 B2 | (3[E,E][E,E][E,E] [E,E]4 B,2 |"^Swing" [G,B,E]3 B, [G,B,E]2 [B,=DF]2 | %7
 [B,EG]2 [A,B,=DF]2 [G,B,E]2 B,2 | [G,B,E]3 F [CEG]2 [C_FA]2 | [DGB]6 D2 | %10
 [B,DG]3 D [B,DG]2 [CEA]2 | [DGB]2 [DFA]2 [B,DG]2 [EGB]2 | [CEA]2 [CEG]2 [=A,=CF]2 [A,CE]2 | %13
 [=DFB]6 B,2 || [G,B,E]3 B, [G,B,E]2 [B,=DF]2 | [B,EG]2 [A,B,=DF]2 [G,B,E]2 B,2 | %16
 [G,B,E]3 F [CEG]2 [C_FA]2 | [DGB]6 D2 | [B,DG]3 D [B,DG]2 [CEA]2 | [DGB]2 [DFA]2 [B,DG]2 [EGB]2 | %20
 [CEA]2 [CEG]2 [=A,=CF]2 [A,CE]2 | [=DFB]6 z2 ||[K:Eb]"^Straight" [G,B,E]4 [B,EG]2 [EGB]2 | %23
 [EAce]4 [CEAc]4 | (3B,[B,E][B,EG] [EGB] z z2 [B,DFA]2 | %25
 [G,B,EG]B,/B,/ EG [B,DB][B,DG][B,DA][B,DF] | [G,B,E]4 [B,EG]2 [EGB]2 | [EGce]4 [CEGc]4 | %28
 (3F[FB][FBd] [Bdf] z z2 [EF=Ac]2 | [DFB]6 [DFB]2 | [DFA]4 [B,EG]2 [B,DF]2 | %31
 [B,EG]2 [EGB]2 z2 [EGB]>[EGB] | [EAc]2 [EAc]2 [Ace]2 [EAc]2 | [EGB]2 (3EEE E2 [EGB]2 | %34
 [Gce]4 [FBd]2 [Gce]2 | [A_df]2 [Gce]2 [FB=d]2 [EAc]2 | [FBd]2 [DFB]2 [F=Ac]2 [EFA]2 | %37
 z E/E/ FG ABcd | [EGBe]4 [G,B,E]2 [G,B,_DE]2 | [CEA]2 A>B [CEAc]4 | [F=Acf]4 [=A,CF]2 [A,CEF]2 | %41
 [DFB]2 B>c [DFBd]4 | [G,B,E]4 [B,EG]2 [EGB]2 | [EGce]4 [FA_cef]4 | %44
 (3G[GB][GBe] [GBeg] z z2 [ABdf]2 | [EGBe]2 (3[EGBe][EGBe][EGBe] [EGBe] z B2 || %46
"^Swing" [B,DF]3 [B,EG] [B,FA]2 [B,EG]2 | [B,DF]6 B,2 | [B,EG]3 [B,FA] [EGB]2 [B,FA]2 | %49
 [B,EG-]4 (3[B,EG]GA (3Bcd | [Ace]4- (3ede (3edc | %51
"^Straight" [EGB][G,B,E]/[G,B,E]/ [G,B,E][B,EG]/[B,EG]/ [B,EG][EGB][B,EG][G,B,E] | %52
 [Gce]4- (3ede (3gfe | [Bdf][DFB]/[DFB]/ [DFB][FBd]/[FBd]/ [FBd][Bdf][FBd][DFB] | %54
 [DFB][DFB]/[DFB]/ [DFB]2- (3[DFB][DF][DFB] (3[DFd][DFB][DFd] | %55
 [DFB][DFB]/[DFB]/ [DFB][DFB]/[DFB]/ (3[DFB][DF][DFB] (3[DFd][DFf][DFd] | %56
 [DFB][DFB]/[DFB]/ [DFB]2- (3[DFB][DF][DFB] (3[DFd][DFB][DFd] | %57
 [DFB][DFB]/[DFB]/ (3[DFB][DFB][DFB] [DFB]2 [DFB]2 || [G,B,E]4 [B,EG]2 [EGB]2 | [EAce]4 [CEAc]4 | %60
 (3B,[B,E][B,EG] [EGB] z z2 [B,DFA]2 | [G,B,EG]B,/B,/ EG [B,DB][B,DG][B,DA][B,DF] | %62
 [G,B,E]4 [B,EG]2 [EGB]2 | [EGce]4 [CEGc]4 | (3F[FB][FBd] [Bdf] z z2 [EF=Ac]2 | [DFB]6 [DFB]2 | %66
 [DFA]4 [B,EG]2 [B,DF]2 | [B,EG]2 [EGB]2 z2 [EGB]>[EGB] | [EAc]2 [EAc]2 [Ace]2 [EAc]2 | %69
 [EGB]2 (3EEE E2 [EGB]2 | [Gce]4 [FBd]2 [Gce]2 | [A_df]2 [Gce]2 [FB=d]2 [EAc]2 | %72
 [FBd]2 [DFB]2 [F=Ac]2 [EFA]2 | z E/E/ FG ABcd | [EGBe]4 [G,B,E]2 [G,B,_DE]2 | [CEA]2 A>B [CEAc]4 | %76
 [F=Acf]4 [=A,CF]2 [A,CEF]2 | [DFB]2 B>c [DFBd]4 | [G,B,E]4 [B,EG]2 [EGB]2 | [EGce]4 [FA_cef]4 | %80
 (3G[GB][GBe] [GBeg]3/2 z/ z2 [ABdf]2 | [GBe]2 z2 z2 z2 |] %82
V:2
 z8 | z8 | z8 | z8 | [E,,E,]2 [D,,D,]2 [C,,C,]2 [B,,,B,,]2 | %5
 [E,,E,]2 [D,,D,]2 [C,,C,]2 [B,,,B,,]2 | [E,,E,]2 [D,,D,]2 [C,,C,]2 [B,,,B,,]2 | %7
 [E,,E,]2 [B,,,B,,]2 [E,,E,]2 [B,,,B,,]2 | [E,,E,]2 [D,,D,]2 [C,,C,]2 [A,,A,]2 | %9
 [G,,G,]2 [F,,F,]2 [E,,E,]2 [D,,D,]2 | [G,,G,]2 [F,,F,]2 [E,,E,]2 [D,,D,]2 | %11
 [G,,G,]2 [D,,D,]2 [G,,G,]2 [E,,E,]2 | [F,,,F,,]4 [=A,,,=A,,]4 | %13
 [B,,,B,,]2 [=C,,=C,]2 [=D,,=D,]2 [B,,,B,,]2 || [E,,E,]2 [D,,D,]2 [C,,C,]2 [B,,,B,,]2 | %15
 [E,,E,]2 [B,,,B,,]2 [E,,E,]2 [B,,,B,,]2 | [E,,E,]2 [D,,D,]2 [C,,C,]2 [A,,A,]2 | %17
 [G,,G,]2 [F,,F,]2 [E,,E,]2 [D,,D,]2 | [G,,G,]2 [F,,F,]2 [E,,E,]2 [D,,D,]2 | %19
 [G,,G,]2 [D,,D,]2 [G,,G,]2 [E,,E,]2 | [F,,,F,,]4 [=A,,,=A,,]4 | %21
 [B,,,B,,]2 [A,,A,]2 [=G,,=G,]2 [F,,F,]2 ||[K:Eb] [E,,E,]2 [D,,D,]2 [C,,C,]2 [B,,,B,,]2 | %23
 [A,,,A,,]2 [C,,C,]2 [E,,E,]2 [A,,A,]2 | [B,,B,]2 [B,,B,]2 [B,,,B,,]2 [B,,,B,,]2 | %25
 [E,,E,]2 z2 [B,,,B,,]2 [B,,,B,,]2 | [E,,E,]2 [D,,D,]2 [C,,C,]2 [B,,,B,,]2 | %27
 [G,,,G,,]2 [C,,C,]2 [E,,E,]2 [G,,G,]2 | [F,,F,]2 [F,,F,]2 [F,,,F,,]2 [F,,,F,,]2 | %29
 [B,,,B,,]2 [F,,F,]2 [D,,D,]2 [B,,,B,,]2 | [F,,F,]2 [F,,F,]2 [E,,E,]2 [D,,D,]2 | %31
 [E,,E,]2 [E,,E,]>[E,,E,] [G,,G,]2 [E,,E,]2 | [A,,A,]2 [A,,A,]2 [C,C]2 [A,,A,]2 | %33
 [G,,G,]2 [E,,E,]2 [G,,G,]2 [B,,B,]2 | [C,C]2 [C,C]2 [B,,B,]2 [C,C]2 | %35
 [_D,_D]2 [C,C]2 [B,,B,]2 [A,,A,]2 | [B,,B,]4 [F,,F,]4 | [B,,B,]2 [A,,A,]2 [G,,G,]2 [F,,F,]2 | %38
 [E,,E,]2 [_D,,_D,]2 [C,,C,]2 [B,,,B,,]2 | [A,,,A,,]2 [E,,E,]2 [A,,A,]2 [G,,G,]2 | %40
 [F,,F,]2 [E,,E,]2 [D,,D,]2 [C,,C,]2 | %41
 [B,,,B,,]2 [B,,B,]2 (3[B,,B,][C,C][B,,B,] (3[A,,A,][G,,G,][F,,F,] | [E,,E,]4 [D,,D,]2 [_D,,_D,]2 | %43
 [C,,C,]2 [C,,C,]2 [_C,,_C,]2 [C,,C,]2 | [B,,,B,,]2 [B,,,B,,]2 [B,,,B,,]2 [B,,,B,,]2 | %45
 [E,,E,]2 B,,2 E,,2 B,,2 || [B,,,B,,]2 [B,,,B,,]2 [B,,,B,,]2 [B,,,B,,]2 | %47
 [B,,,B,,]2 [D,,D,]2 [F,,F,]2 [B,,,B,,]2 | [E,,E,]2 [E,,E,]2 [E,,E,]2 [E,,E,]2 | %49
 [E,,E,]2 [E,,E,]2 [B,,,B,,]2 [G,,,G,,]2 | [A,,,A,,]2 [C,,C,]2 [E,,E,]2 [A,,A,]2 | %51
 [G,,G,]2 [E,,E,]2 [B,,,B,,]2 [G,,,G,,]2 | [C,,C,]2 [E,,E,]2 [G,,G,]2 [C,C]2 | %53
 [B,,B,]2 [F,,F,]2 [D,,D,]2 [B,,,B,,]2 | [B,,,B,,]4 [D,,D,]2 [F,,F,]2 | [B,,B,]4 [B,,,B,,]4 | %56
 [B,,,B,,]4 [D,,D,]2 [F,,F,]2 | [B,,B,]4 (3[B,,B,][C,C][B,,B,] (3[A,,A,][G,,G,][F,,F,] || %58
 [E,,E,]2 [D,,D,]2 [C,,C,]2 [B,,,B,,]2 | [A,,,A,,]2 [C,,C,]2 [E,,E,]2 [A,,A,]2 | %60
 [B,,B,]2 [B,,B,]2 [B,,,B,,]2 [B,,,B,,]2 | [E,,E,]2 z2 [B,,,B,,]2 [B,,,B,,]2 | %62
 [E,,E,]2 [D,,D,]2 [C,,C,]2 [B,,,B,,]2 | [G,,,G,,]2 [C,,C,]2 [E,,E,]2 [G,,G,]2 | %64
 [F,,F,]2 [F,,F,]2 [F,,,F,,]2 [F,,,F,,]2 | [B,,,B,,]2 [F,,F,]2 [D,,D,]2 [B,,,B,,]2 | %66
 [F,,F,]2 [F,,F,]2 [E,,E,]2 [D,,D,]2 | [E,,E,]2 [E,,E,]>[E,,E,] [G,,G,]2 [E,,E,]2 | %68
 [A,,A,]2 [A,,A,]2 [C,C]2 [A,,A,]2 | [G,,G,]2 [E,,E,]2 [G,,G,]2 [B,,B,]2 | %70
 [C,C]2 [C,C]2 [B,,B,]2 [C,C]2 | [_D,_D]2 [C,C]2 [B,,B,]2 [A,,A,]2 | [B,,B,]4 [F,,F,]4 | %73
 [B,,B,]2 [A,,A,]2 [G,,G,]2 [F,,F,]2 | [E,,E,]2 [_D,,_D,]2 [C,,C,]2 [B,,,B,,]2 | %75
 [A,,,A,,]2 [E,,E,]2 [A,,A,]2 [G,,G,]2 | [F,,F,]2 [E,,E,]2 [D,,D,]2 [C,,C,]2 | %77
 [B,,,B,,]2 [B,,B,]2 (3[B,,B,][C,C][B,,B,] (3[A,,A,][G,,G,][F,,F,] | [E,,E,]4 [D,,D,]2 [_D,,_D,]2 | %79
 [C,,C,]2 [C,,C,]2 [_C,,_C,]2 [C,,C,]2 | [B,,,B,,]2 [B,,,B,,]2 [B,,,B,,]2 [B,,,B,,]2 | %81
 [E,,E,]2 B,,2 [E,,E,]2 z2 |] %82
V:3
 x8 | x8 | x8 | x8 | x2 (3GGG [FA]2 x2 | x2 (3G,G,G, [F,A,]2 x2 | x8 | x8 | x8 | x2 (3DDD D2 x2 | %10
 x8 | x8 | x8 | x2 (3[B,=DF][B,DF][B,DF] [B,DF]2 x2 || x8 | x8 | x8 | x2 (3DDD D2 x2 | x8 | x8 | %20
 x8 | x2 (3[B,B][B,B][B,B] (3[B,B][B,B][B,B] (3[B,B][B,B][B,B] ||[K:Eb] x8 | x8 | x8 | x8 | x8 | %27
 x8 | x8 | x [B,B]/[B,B]/ [B,B][B,B] [B,B][B,B][B,B][B,B] | x8 | x8 | x8 | x8 | x8 | x8 | x8 | %37
 [DFB]4 x4 | x8 | x2 [CE]2 x4 | x8 | x2 [DF]2 x4 | x2 (3EB,E x2 (3z GB | x8 | x8 | x8 || x8 | %47
 x2 (3B,B,B, B,2 x2 | x8 | x2 (3[B,E][B,E][B,E] x4 | x4 [Ac]2 [Ac]2 | z8 | x4 [Gc]2 [Gc]2 | x8 | %54
 x8 | x8 | x8 | x8 || x8 | x8 | x8 | x8 | x8 | x8 | x8 | %65
 x [B,B]/[B,B]/ [B,B][B,B] [B,B][B,B][B,B][B,B] | x8 | x8 | x8 | x2 E2 x4 | x8 | x8 | x8 | %73
 [DFB]4 x4 | x8 | x2 [CE]2 x4 | x8 | x2 [DF]2 x4 | x2 (3EB,E x2 (3z GB | x8 | x8 | %81
 x3/2 (3B,/4C/4D/4 [G,B,E]3/2(3B,/4C/4D/4 [G,B,E]3/2 x5/2 |] %82

